weallcode/static/weallcode/images/companies/amazon.svg

<svg height="46" viewBox="0 0 154 46" width="154" xmlns="http://www.w3.org/2000/svg"><g fill="#fff" fill-opacity=".4" fill-rule="evenodd"><path d="m94.3609065 35.8167002c-8.960427 6.6404042-21.948019 10.1832998-33.1300939 10.1832998-15.6790729 0-29.7942618-5.8305945-40.4729478-15.5280095-.83899-.7625705-.0872579-1.8018165.9195352-1.2079628 11.5243837 6.7416291 25.7738197 10.7974037 40.493086 10.7974037 9.9269409 0 20.8472551-2.0650065 30.8883051-6.3502226 1.5168974-.6478472 2.7854516.9987587 1.3021154 2.1054914"/><path d="m98.9538946 31.5357224c-1.1606889-1.3758524-7.7014864-.6500577-10.6373349-.3281837-.8944134.1009801-1.0309602-.6185025-.2253131-1.1360296 5.2094278-3.3891407 13.7575314-2.4108969 14.7543554-1.2748722.996818 1.1423392-.259448 9.0629622-5.154809 12.8433971-.7510304.5806352-1.4679242.2713876-1.1333701-.4985887 1.0992335-2.5371227 3.5639841-8.2235586 2.3964717-9.6057229"/><path d="m88.4592277 4.96522545v-3.42313517c0-.51806061.4060333-.86561969.8932726-.86561969h15.8149967c.507546 0 .913579.3541176.913579.86561969v2.93130614c-.006763.49182903-.433103 1.13448653-1.191035 2.1509347l-8.1951052 11.33831928c3.045253-.0721312 6.2596832.3672322 9.0207102 1.8755119.622584.3410005.791765.8393881.839136 1.3312221v3.6526559c0 .4983876-.568448 1.0820209-1.163963.7803689-4.865636-2.4722672-11.3283324-2.741134-16.7082744.0262316-.5481439.2885399-1.1233574-.2885399-1.1233574-.7869274v-3.4690398c0-.5574068.0067628-1.5082822.5819763-2.3542289l9.494416-13.19415558h-8.2627777c-.5075408 0-.9135741-.34755658-.9135741-.85906367"/><path d="m32.641219 26.3823529h-4.6332816c-.4431231-.0323065-.7950206-.3618694-.8276049-.7819039v-23.57987586c0-.47172697.3975116-.84652689.8927711-.84652689h4.3204856c.449648.01937358.8080554.36187187.8406421.78836424v3.08238352h.0847157c1.1273661-2.9789912 3.2452486-4.36832342 6.0995104-4.36832342 2.8998734 0 4.7114799 1.38933222 6.0147947 4.36832342 1.1208512-2.9789912 3.6688295-4.36832342 6.3992765-4.36832342 1.9419387 0 4.066341.79482703 5.3631385 2.5783426 1.4662288 1.9838374 1.1664652 4.86589415 1.1664652 7.39254431l-.0065124 14.8820132c0 .4717269-.3975115.8529822-.892771.8529822h-4.6267692c-.4626726-.0323065-.8341172-.4006412-.8341172-.8529822v-12.4975321c0-.9951489.091228-3.47656198-.1303323-4.42001838-.3453776-1.5831888-1.3815131-2.02907201-2.7239296-2.02907201-1.1208511 0-2.2938337.7431321-2.7695436 1.93214495-.4757099 1.18901038-.4300934 3.17930564-.4300934 4.51694544v12.4975321c0 .4717269-.3975115.8529822-.892771.8529822h-4.6267642c-.4691925-.0323065-.8341222-.4006412-.8341222-.8529822l-.0065174-12.4975321c0-2.6300376.4366058-6.50078531-2.8542593-6.50078531-3.3299717 0-3.1996395 3.77381331-3.1996395 6.50078531v12.4975321c0 .4717269-.3975116.8529822-.892771.8529822"/><path d="m119.35717.67647059c7.099584 0 10.942105 5.89600699 10.942105 13.39291821 0 7.2431063-4.246294 12.9894347-10.942105 12.9894347-6.971726 0-10.767146-5.896007-10.767146-13.2432371 0-7.39278735 3.842527-13.13911581 10.767146-13.13911581m.040374 4.84826474c-3.526234 0-3.74831 4.64651807-3.74831 7.54246337 0 2.9024488-.047107 9.0978104 3.707936 9.0978104 3.707934 0 3.882901-4.9979358 3.882901-8.0435621 0-2.0043777-.087483-4.39922422-.713327-6.29948546-.538358-1.65295992-1.608338-2.29722621-3.1292-2.29722621" fill-rule="nonzero"/><path d="m139.328846 26.3823529h-4.768639c-.478214-.0323065-.86213-.4006412-.86213-.8529822l-.006731-23.58634611c.040412-.43295516.4378-.76897834.922746-.76897834h4.43861c.417589.01937358.761093.29079104.855391.6591257v3.60580048h.087555c1.340343-3.22454271 3.219506-4.76250184 6.526571-4.76250184 2.148582 0 4.243284.7431321 5.590358 2.77866443 1.252778 1.88690789 1.252778 5.05975814 1.252778 7.34084448v14.8432463c-.053882.4135643-.45127.7431271-.922741.7431271h-4.80232c-.437803-.0323065-.801513-.3424835-.848656-.7431271v-12.8077091c0-2.5783426.309826-6.3521608-2.997242-6.3521608-1.165215 0-2.236142.74959736-2.768236 1.88690788-.673533 1.44103207-.761093 2.87559892-.761093 4.46525292v12.697854c-.006731.4717269-.424328.8529822-.936215.8529822"/><g fill-rule="nonzero"><path d="m13.7530564 14.7342458v-.9954752c-3.3520481 0-6.89321459.7110537-6.89321459 4.6283153 0 1.984488 1.03691456 3.3290313 2.8172812 3.3290313 1.30429789 0 2.47164299-.7950877 3.20857529-2.0879166.9130041-1.5901779.8673581-3.0833919.8673581-4.8739548m4.6759052 11.2023366c-.3065096.2714941-.7499744.2908864-1.0956126.1098936-1.5390674-1.2669694-1.812973-1.8552046-2.6607665-3.0639972-2.5433808 2.5727233-4.3433068 3.3419513-7.64318398 3.3419513-3.89985168 0-6.93886031-2.385263-6.93886031-7.1622516 0-3.7298064 2.04122522-6.27021 4.94328602-7.5113221 2.51729395-1.0989064 6.03237627-1.2928266 8.71923217-1.5966403v-.59470017c0-1.09244146.0847796-2.38526798-.5608483-3.32902639-.5673734-.84680449-1.6499364-1.19586767-2.6020763-1.19586767-1.76731961 0-3.34552314.8985139-3.73028999 2.7601834-.07825982.41370735-.38476934.82094732-.80214259.84033958l-4.49982617-.47834904c-.37824707-.08402903-.7956228-.38784771-.69127887-.96315067 1.03691705-5.40401324 5.96063875-7.03297806 10.36916802-7.03297806 2.2564306 0 5.2041424.59470016 6.984509 2.28830174 2.2564379 2.08791421 2.0412252 4.87395478 2.0412252 7.90563478v7.1622565c0 2.1525584.8999693 3.0963168 1.7477628 4.2598649.2999872.4136999.3652025.9114388-.0130446 1.2217174-.9456151.7821628-2.6281576 2.2365923-3.5542135 3.0510723l-.0130395-.0129446" transform="translate(63.13628)"/><path d="m13.8423479 14.7398349v-.9999701c-3.3854302 0-6.96186211.7142644-6.96186211 4.6492138 0 1.9934486 1.0472409 3.344063 2.8453377 3.344063 1.31728701 0 2.49625741-.7986777 3.24052861-2.0973443.9220964-1.597358.8759958-3.0973145.8759958-4.8959624m4.7224712 11.2529191c-.309562.27272-.7574431.2921998-1.1065234.1103898-1.5543946-1.2726902-1.8310279-1.8635815-2.6872644-3.0778322-2.5687096 2.58434-4.3865605 3.3570413-7.71930023 3.3570413-3.93868917 0-7.00796242-2.3960333-7.00796242-7.1945916 0-3.7466477 2.0615532-6.2985221 4.99251479-7.5452383 2.54236295-1.1038683 6.09245096-1.2986641 8.80606446-1.6038497v-.59738542c0-1.09737421.0856239-2.39603829-.5664336-3.34405809-.5730237-.8506281-1.6663676-1.20126743-2.6279896-1.20126743-1.78491987 0-3.37884027.902571-3.76743891 2.77264658-.07903918.41557538-.38860114.82465418-.81013088.84413401l-4.54463865-.48050896c-.38201392-.08440844-.80354618-.38959897-.69816311-.96749962 1.0472434-5.42841421 6.01999902-7.06473437 10.47243155-7.06473437 2.2789018 0 5.255969.59738543 7.0540657 2.29863421 2.2789091 2.09734185 2.0615532 4.89596236 2.0615532 7.94133149v7.1945965c0 2.1622779.9089318 3.1102977 1.7651682 4.2790996.3029748.415568.3688395.9155543-.0131744 1.2272339-.9550323.7856946-2.6543307 2.2466913-3.5896089 3.0648489l-.0131694-.013003"/></g></g></svg>

<?xml version="1.0" encoding="UTF-8"?>
<svg width="154px" height="46px" viewBox="0 0 154 46" version="1.1" xmlns="http://www.w3.org/2000/svg" xmlns:xlink="http://www.w3.org/1999/xlink">
    <!-- Generator: Sketch 52.6 (67491) - http://www.bohemiancoding.com/sketch -->
    <title>Amazon_logo_plain</title>
    <desc>Created with Sketch.</desc>
    <g id="Page-1" stroke="none" stroke-width="1" fill="none" fill-rule="evenodd" fill-opacity="0.4">
        <g id="Desktop" transform="translate(-901.000000, -3375.000000)" fill="#FFFFFF">
            <g id="Group-26" transform="translate(-29.000000, 3294.000000)">
                <g id="Group-25" transform="translate(109.000000, 63.000000)">
                    <g id="Amazon_logo_plain" transform="translate(821.000000, 18.000000)">
                        <path d="M94.3609065,35.8167002 C85.4004795,42.4571044 72.4128875,46 61.2308126,46 C45.5517397,46 31.4365508,40.1694055 20.7578648,30.4719905 C19.9188748,29.70942 20.6706069,28.670174 21.6774,29.2640277 C33.2017837,36.0056568 47.4512197,40.0614314 62.170486,40.0614314 C72.0974269,40.0614314 83.0177411,37.9964249 93.0587911,33.7112088 C94.5756885,33.0633616 95.8442427,34.7099675 94.3609065,35.8167002" id="path8"></path>
                        <path d="M98.9538946,31.5357224 C97.7932057,30.15987 91.2524082,30.8856647 88.3165597,31.2075387 C87.4221463,31.3085188 87.2855995,30.5890362 88.0912466,30.0715091 C93.3006744,26.6823684 101.848778,27.6606122 102.845602,28.7966369 C103.84242,29.9389761 102.586154,37.8595991 97.690793,41.640034 C96.9397626,42.2206692 96.2228688,41.9114216 96.5574229,41.1414453 C97.6566564,38.6043226 100.121407,32.9178867 98.9538946,31.5357224" id="path10"></path>
                        <path d="M88.4592277,4.96522545 L88.4592277,1.54209028 C88.4592277,1.02402967 88.865261,0.676470588 89.3525003,0.676470588 L105.167497,0.676470588 C105.675043,0.676470588 106.081076,1.03058819 106.081076,1.54209028 L106.081076,4.47339642 C106.074313,4.96522545 105.647973,5.60788295 104.890041,6.62433112 L96.6949358,17.9626504 C99.7401888,17.8905192 102.954619,18.3298826 105.715646,19.8381623 C106.33823,20.1791628 106.507411,20.6775504 106.554782,21.1693844 L106.554782,24.8220403 C106.554782,25.3204279 105.986334,25.9040612 105.390819,25.6024092 C100.525183,23.130142 94.0624866,22.8612752 88.6825446,25.6286408 C88.1344007,25.9171807 87.5591872,25.3401009 87.5591872,24.8417134 L87.5591872,21.3726736 C87.5591872,20.8152668 87.56595,19.8643914 88.1411635,19.0184447 L97.6355795,5.82428912 L89.3728018,5.82428912 C88.865261,5.82428912 88.4592277,5.47673254 88.4592277,4.96522545" id="path12"></path>
                        <path d="M32.641219,26.3823529 L28.0079374,26.3823529 C27.5648143,26.3500464 27.2129168,26.0204835 27.1803325,25.600449 L27.1803325,2.02057314 C27.1803325,1.54884617 27.5778441,1.17404625 28.0731036,1.17404625 L32.3935892,1.17404625 C32.8432372,1.19341983 33.2016446,1.53591812 33.2342313,1.96241049 L33.2342313,5.04479401 L33.318947,5.04479401 C34.4463131,2.06580281 36.5641956,0.676470588 39.4184574,0.676470588 C42.3183308,0.676470588 44.1299373,2.06580281 45.4332521,5.04479401 C46.5541033,2.06580281 49.1020816,0.676470588 51.8325286,0.676470588 C53.7744673,0.676470588 55.8988696,1.47129762 57.1956671,3.25481319 C58.6618959,5.23865059 58.3621323,8.12070734 58.3621323,10.6473575 L58.3556199,25.5293707 C58.3556199,26.0010976 57.9581084,26.3823529 57.4628489,26.3823529 L52.8360797,26.3823529 C52.3734071,26.3500464 52.0019625,25.9817117 52.0019625,25.5293707 L52.0019625,13.0318386 C52.0019625,12.0366897 52.0931905,9.55527662 51.8716302,8.61182022 C51.5262526,7.02863142 50.4901171,6.58274821 49.1477006,6.58274821 C48.0268495,6.58274821 46.8538669,7.32588031 46.378157,8.51489316 C45.9024471,9.70390354 45.9480636,11.6941988 45.9480636,13.0318386 L45.9480636,25.5293707 C45.9480636,26.0010976 45.5505521,26.3823529 45.0552926,26.3823529 L40.4285284,26.3823529 C39.9593359,26.3500464 39.5944062,25.9817117 39.5944062,25.5293707 L39.5878888,13.0318386 C39.5878888,10.401801 40.0244946,6.53105329 36.7336295,6.53105329 C33.4036578,6.53105329 33.53399,10.3048666 33.53399,13.0318386 L33.53399,25.5293707 C33.53399,26.0010976 33.1364784,26.3823529 32.641219,26.3823529" id="path14"></path>
                        <path d="M119.35717,0.676470588 C126.456754,0.676470588 130.299275,6.57247758 130.299275,14.0693888 C130.299275,21.3124951 126.052981,27.0588235 119.35717,27.0588235 C112.385444,27.0588235 108.590024,21.1628165 108.590024,13.8155864 C108.590024,6.42279905 112.432551,0.676470588 119.35717,0.676470588 M119.397544,5.52473533 C115.87131,5.52473533 115.649234,10.1712534 115.649234,13.0671987 C115.649234,15.9696475 115.602127,22.1650091 119.35717,22.1650091 C123.065104,22.1650091 123.240071,17.1670733 123.240071,14.121447 C123.240071,12.1170693 123.152588,9.72222278 122.526744,7.82196154 C121.988386,6.16900162 120.918406,5.52473533 119.397544,5.52473533" id="path16" fill-rule="nonzero"></path>
                        <path d="M139.328846,26.3823529 L134.560207,26.3823529 C134.081993,26.3500464 133.698077,25.9817117 133.698077,25.5293707 L133.691346,1.94302459 C133.731758,1.51006943 134.129146,1.17404625 134.614092,1.17404625 L139.052702,1.17404625 C139.470291,1.19341983 139.813795,1.46483729 139.908093,1.83317195 L139.908093,5.43897243 L139.995648,5.43897243 C141.335991,2.21442972 143.215154,0.676470588 146.522219,0.676470588 C148.670801,0.676470588 150.765503,1.41960269 152.112577,3.45513502 C153.365355,5.34204291 153.365355,8.51489316 153.365355,10.7959795 L153.365355,25.6392258 C153.311473,26.0527901 152.914085,26.3823529 152.442614,26.3823529 L147.640294,26.3823529 C147.202491,26.3500464 146.838781,26.0398694 146.791638,25.6392258 L146.791638,12.8315167 C146.791638,10.2531741 147.101464,6.4793559 143.794396,6.4793559 C142.629181,6.4793559 141.558254,7.22895326 141.02616,8.36626378 C140.352627,9.80729585 140.265067,11.2418627 140.265067,12.8315167 L140.265067,25.5293707 C140.258336,26.0010976 139.840739,26.3823529 139.328852,26.3823529" id="path18"></path>
                        <g id="use28" transform="translate(63.136280, 0.000000)" fill-rule="nonzero">
                            <path d="M13.7530564,14.7342458 L13.7530564,13.7387706 C10.4010083,13.7387706 6.85984181,14.4498243 6.85984181,18.3670859 C6.85984181,20.3515739 7.89675637,21.6961172 9.67712301,21.6961172 C10.9814209,21.6961172 12.148766,20.9010295 12.8856983,19.6082006 C13.7987024,18.0180227 13.7530564,16.5248087 13.7530564,14.7342458 M18.4289616,25.9365824 C18.122452,26.2080765 17.6789872,26.2274688 17.333349,26.046476 C15.7942816,24.7795066 15.520376,24.1912714 14.6725825,22.9824788 C12.1292017,25.5552021 10.3292757,26.3244301 7.02939852,26.3244301 C3.12954684,26.3244301 0.0905382056,23.9391671 0.0905382056,19.1621785 C0.0905382056,15.4323721 2.13176343,12.8919685 5.03382423,11.6508564 C7.55111818,10.55195 11.0662005,10.3580298 13.7530564,10.0542161 L13.7530564,9.45951593 C13.7530564,8.36707447 13.837836,7.07424795 13.1922081,6.13048954 C12.6248347,5.28368505 11.5422717,4.93462187 10.5901318,4.93462187 C8.82281219,4.93462187 7.24460866,5.83313577 6.85984181,7.69480527 C6.78158199,8.10851262 6.47507247,8.51575259 6.05769922,8.53514485 L1.55787305,8.05679581 C1.17962598,7.97276678 0.76225025,7.6689481 0.866594182,7.09364514 C1.90351123,1.6896319 6.82723293,0.0606670836 11.2357622,0.0606670836 C13.4921928,0.0606670836 16.4399046,0.655367235 18.2202712,2.34896882 C20.4767091,4.43688303 20.2614964,7.2229236 20.2614964,10.2546036 L20.2614964,17.4168601 C20.2614964,19.5694185 21.1614657,20.5131769 22.0092592,21.676725 C22.3092464,22.0904249 22.3744617,22.5881638 21.9962146,22.8984424 C21.0505995,23.6806052 19.368057,25.1350347 18.4420011,25.9495147 L18.4289616,25.9365701" id="path30"></path>
                        </g>
                        <path d="M13.8423479,14.7398349 L13.8423479,13.7398648 C10.4569177,13.7398648 6.88048579,14.4541292 6.88048579,18.3890786 C6.88048579,20.3825272 7.92772669,21.7331416 9.72582349,21.7331416 C11.0431105,21.7331416 12.2220809,20.9344639 12.9663521,19.6357973 C13.8884485,18.0384393 13.8423479,16.5384828 13.8423479,14.7398349 M18.5648191,25.992754 C18.2552571,26.265474 17.807376,26.2849538 17.4582957,26.1031438 C15.9039011,24.8304536 15.6272678,24.2395623 14.7710313,23.0253116 C12.2023217,25.6096516 10.3844708,26.3823529 7.05173107,26.3823529 C3.1130419,26.3823529 0.0437686514,23.9863196 0.0437686514,19.1877613 C0.0437686514,15.4411136 2.10532185,12.8892392 5.03628344,11.642523 C7.57864639,10.5386547 11.1287344,10.3438589 13.8423479,10.0386733 L13.8423479,9.44128788 C13.8423479,8.34391367 13.9279718,7.04524959 13.2759143,6.09722979 C12.7028906,5.24660169 11.6095467,4.89596236 10.6479247,4.89596236 C8.86300483,4.89596236 7.26908443,5.79853336 6.88048579,7.66860894 C6.80144661,8.08418432 6.49188465,8.49326312 6.07035491,8.51274295 L1.52571626,8.03223399 C1.14370234,7.94782555 0.722170082,7.64263502 0.827553146,7.06473437 C1.87479655,1.63632016 6.84755217,0 11.2999847,0 C13.5788865,0 16.5559537,0.597385427 18.3540504,2.29863421 C20.6329595,4.39597606 20.4156036,7.19459657 20.4156036,10.2399657 L20.4156036,17.4345622 C20.4156036,19.5968401 21.3245354,20.5448599 22.1807718,21.7136618 C22.4837466,22.1292298 22.5496113,22.6292161 22.1675974,22.9408957 C21.2125651,23.7265903 19.5132667,25.187587 18.5779885,26.0057446 L18.5648191,25.9927416" id="path30" fill-rule="nonzero"></path>
                    </g>
                </g>
            </g>
        </g>
    </g>
</svg>
